X: 6
T: Big Scioty
R: reel
Z: 2010 John Chambers <jc:trillian.mit.edu>
F: http://www.abbamoses.com/fiddledo/fiddlepage
M: C|
L: 1/8
K: G
(3DEF |\
GFGA Bdd2 | [AD-][B2D2][AD-] [BD]ABd | BAGB AGED | [EG,-][G2G,2][EG,] [G2G,2]D2- |
DB,DE GABd | J[e4e4] J[e3e3]A | BAB2 AGED | EG2A G2 :|
|:  e2- |\
edef gfed | egab a4 | efgf edBd | [e4e4] [e2e2]de- |
efgf edBd | [e2e2][e2e2] [g3e3]A | BAGB AGED | EG2A G2 :|

%%sep 5 1 500

